句句/Assets.xcassets/sad.imageset/sad.svg

<?xml version="1.0" encoding="UTF-8"?>
<svg width="1200pt" height="1200pt" version="1.1" viewBox="0 0 1200 1200" xmlns="http://www.w3.org/2000/svg">
 <g fill="#2d3042">
  <path d="m995.67 721.1h-28.125v-134.7h43.125c8.375 0 16.109-4.4688 20.297-11.719s4.1875-16.188 0-23.438-11.922-11.719-20.297-11.719h-43.125v-107.51c0-24.031-2.3516-48.008-7.0312-71.578l38.766-14.062c7.3789-3.1719 12.621-9.8984 13.891-17.828 1.2695-7.9336-1.6094-15.961-7.6328-21.273-6.0195-5.3164-14.344-7.1797-22.055-4.9375l-34.969 12.633c-18.441-54.609-49.465-104.12-90.562-144.54l25.641-29.812c5.1875-6.3867 6.6484-15.031 3.8398-22.766-2.8047-7.7383-9.4648-13.438-17.539-15.016-8.0781-1.5742-16.391 1.1992-21.902 7.3125l-25.336 29.555c-57.566-43.988-126.91-69.875-199.22-74.367v-39.562c0-8.375-4.4688-16.109-11.719-20.297s-16.188-4.1875-23.438 0-11.719 11.922-11.719 20.297v39.586c-72.238 4.5781-141.48 30.512-198.96 74.508l-25.594-29.719c-5.5117-6.1133-13.824-8.8867-21.902-7.3125-8.0742 1.5781-14.734 7.2773-17.539 15.016-2.8086 7.7344-1.3477 16.379 3.8398 22.766l25.781 30c-41.016 40.426-71.977 89.906-90.398 144.47l-35.273-12.75c-5.8477-2.1094-12.297-1.8125-17.926 0.83203s-9.9766 7.418-12.086 13.266-1.8125 12.297 0.83203 17.926c2.6445 5.6289 7.418 9.9766 13.266 12.086l39.141 14.062c-4.6758 23.531-7.0312 47.469-7.0312 71.461v107.55h-43.477c-8.375 0-16.109 4.4688-20.297 11.719s-4.1875 16.188 0 23.438 11.922 11.719 20.297 11.719h43.5v134.7h-13.688c-16.02 0.019532-31.375 6.3906-42.703 17.719-11.328 11.328-17.699 26.684-17.719 42.703v68.484c0.019531 16.016 6.3906 31.371 17.719 42.695s26.688 17.691 42.703 17.703h12.68l64.594 219.91c5.7852 19.391 17.652 36.406 33.852 48.531s35.867 18.719 56.102 18.805h427.45c20.234-0.085938 39.902-6.6797 56.102-18.805s28.066-29.141 33.852-48.531l64.594-219.91h27.398c16.012-0.019531 31.363-6.3867 42.688-17.711 11.324-11.324 17.691-26.676 17.711-42.688v-68.484c-0.019531-16.016-6.3867-31.371-17.711-42.695-11.32-11.328-26.672-17.703-42.688-17.727zm-716.06-289.08c0-176.77 143.81-320.58 320.58-320.58 147.66 0 272.37 100.43 309.38 236.55 0.1875 1.8789 0.60547 3.7305 1.2422 5.5078 0.14844 0.4375 0.32031 0.87109 0.51562 1.2891 6.2578 25.305 9.4062 51.277 9.375 77.344v126.84c-0.5 2.7031-0.5 5.4766 0 8.1797v154.05h-641.09zm579.09 685.08c-2.8867 9.6992-8.8164 18.215-16.918 24.281-8.1016 6.0625-17.938 9.3594-28.059 9.3984h-427.45c-10.121-0.039062-19.957-3.3359-28.059-9.3984-8.1016-6.0664-14.031-14.582-16.918-24.281l-60.727-206.7h638.86zm150.49-267.19c0 7.4688-6.0547 13.523-13.523 13.523h-776.62c-3.5898 0.007812-7.0352-1.4141-9.5781-3.9531-2.5391-2.5352-3.9688-5.9805-3.9688-9.5703v-68.391c0-7.4805 6.0664-13.547 13.547-13.547h776.62c7.4727 0.011719 13.523 6.0742 13.523 13.547z"/>
  <path d="m469.27 431.81c0 24.969-20.242 45.211-45.211 45.211s-45.211-20.242-45.211-45.211 20.242-45.211 45.211-45.211 45.211 20.242 45.211 45.211"/>
  <path d="m821.16 431.81c0 24.969-20.242 45.211-45.211 45.211s-45.211-20.242-45.211-45.211 20.242-45.211 45.211-45.211 45.211 20.242 45.211 45.211"/>
  <path d="m700.78 559.41c-0.82031-2.6016-21.398-63.938-100.78-63.938s-100.01 61.336-100.78 63.938c-0.82031 2.3984-1.2383 4.918-1.2422 7.4531-0.050781 7.5664 3.5547 14.691 9.6797 19.133 6.125 4.4414 14.02 5.6523 21.195 3.25 7.1758-2.4023 12.75-8.1172 14.969-15.352 1.5938-4.2891 13.523-31.453 56.25-31.453 42.727 0 54.609 27.164 56.25 31.453 2.2188 7.2344 7.793 12.949 14.969 15.352 7.1758 2.4023 15.07 1.1914 21.195-3.25 6.125-4.4414 9.7305-11.566 9.6797-19.133-0.003906-2.5352-0.42187-5.0547-1.2422-7.4531z"/>
 </g>
</svg>

<svg width="1200" height="1200" viewBox="0 0 1200 1200" fill="none" xmlns="http://www.w3.org/2000/svg">
<path d="M995.67 721.1H967.545V586.4H1010.67C1019.05 586.4 1026.78 581.931 1030.97 574.681C1035.16 567.431 1035.15 558.493 1030.97 551.243C1026.78 543.993 1019.05 539.524 1010.67 539.524H967.545V432.014C967.545 407.983 965.194 384.006 960.514 360.436L999.28 346.374C1006.66 343.202 1011.9 336.475 1013.17 328.546C1014.44 320.612 1011.56 312.585 1005.54 307.273C999.519 301.956 991.194 300.093 983.483 302.335L948.514 314.968C930.073 260.359 899.049 210.848 857.952 170.428L883.593 140.616C888.781 134.23 890.242 125.585 887.433 117.85C884.628 110.112 877.968 104.412 869.894 102.834C861.816 101.26 853.503 104.033 847.992 110.147L822.656 139.702C765.09 95.7138 695.746 69.8268 623.436 65.3348V25.7728C623.436 17.3978 618.967 9.66377 611.717 5.47577C604.467 1.28777 595.529 1.28827 588.279 5.47577C581.029 9.66327 576.56 17.3978 576.56 25.7728V65.3588C504.322 69.9369 435.08 95.8708 377.6 139.867L352.006 110.148C346.494 104.034 338.182 101.261 330.104 102.835C322.03 104.413 315.37 110.113 312.565 117.851C309.756 125.586 311.217 134.23 316.405 140.617L342.186 170.617C301.17 211.043 270.209 260.523 251.788 315.087L216.515 302.337C210.667 300.228 204.218 300.525 198.589 303.169C192.96 305.814 188.612 310.587 186.503 316.435C184.393 322.283 184.69 328.732 187.335 334.361C189.979 339.99 194.753 344.338 200.601 346.447L239.742 360.509C235.066 384.04 232.711 407.978 232.711 431.97V539.52H189.234C180.859 539.52 173.125 543.989 168.937 551.239C164.749 558.489 164.749 567.427 168.937 574.677C173.124 581.927 180.859 586.396 189.234 586.396H232.734V721.096H219.046C203.026 721.116 187.671 727.487 176.343 738.815C165.015 750.143 158.644 765.499 158.624 781.518V850.002C158.643 866.018 165.014 881.373 176.343 892.697C187.671 904.021 203.031 910.388 219.046 910.4H231.726L296.32 1130.31C302.105 1149.7 313.972 1166.72 330.172 1178.84C346.372 1190.97 366.039 1197.56 386.274 1197.65H813.724C833.958 1197.56 853.626 1190.97 869.826 1178.84C886.026 1166.72 897.892 1149.7 903.678 1130.31L968.272 910.4H995.67C1011.68 910.381 1027.03 904.014 1038.36 892.689C1049.68 881.365 1056.05 866.013 1056.07 850.001V781.517C1056.05 765.501 1049.68 750.146 1038.36 738.822C1027.04 727.494 1011.69 721.119 995.67 721.095L995.67 721.1ZM279.61 432.02C279.61 255.25 423.42 111.44 600.19 111.44C747.85 111.44 872.56 211.87 909.57 347.99C909.758 349.869 910.176 351.72 910.812 353.498C910.961 353.935 911.133 354.369 911.328 354.787C917.586 380.092 920.734 406.064 920.703 432.131V558.971C920.203 561.674 920.203 564.447 920.703 567.15V721.2H279.613L279.61 432.02ZM858.7 1117.1C855.813 1126.8 849.884 1135.31 841.782 1141.38C833.681 1147.44 823.844 1150.74 813.723 1150.78H386.273C376.152 1150.74 366.316 1147.44 358.214 1141.38C350.112 1135.31 344.183 1126.8 341.296 1117.1L280.569 910.4H919.429L858.7 1117.1ZM1009.19 849.91C1009.19 857.379 1003.14 863.433 995.667 863.433H219.047C215.457 863.441 212.012 862.019 209.469 859.48C206.93 856.944 205.5 853.499 205.5 849.909V781.518C205.5 774.038 211.567 767.971 219.047 767.971H995.667C1003.14 767.983 1009.19 774.046 1009.19 781.518L1009.19 849.91Z" fill="#2D3042"/>
<path d="M469.27 431.81C469.27 456.779 449.028 477.021 424.059 477.021C399.09 477.021 378.848 456.779 378.848 431.81C378.848 406.841 399.09 386.599 424.059 386.599C449.028 386.599 469.27 406.841 469.27 431.81Z" fill="#2D3042"/>
<path d="M821.16 431.81C821.16 456.779 800.918 477.021 775.949 477.021C750.98 477.021 730.738 456.779 730.738 431.81C730.738 406.841 750.98 386.599 775.949 386.599C800.918 386.599 821.16 406.841 821.16 431.81Z" fill="#2D3042"/>
<path d="M700.78 559.41C699.96 556.808 679.382 495.472 600 495.472C520.618 495.472 499.99 556.808 499.22 559.41C498.4 561.808 497.982 564.328 497.978 566.863C497.927 574.429 501.533 581.554 507.658 585.996C513.783 590.437 521.678 591.648 528.853 589.246C536.029 586.843 541.603 581.129 543.822 573.894C545.416 569.605 557.345 542.441 600.072 542.441C642.799 542.441 654.681 569.605 656.322 573.894C658.541 581.128 664.115 586.843 671.291 589.246C678.467 591.648 686.361 590.437 692.486 585.996C698.611 581.554 702.216 574.43 702.165 566.863C702.162 564.328 701.744 561.808 700.923 559.41H700.78Z" fill="#2D3042"/>
</svg>
